icon-themes/breeze_svg/cmd/32/objectalignleft.svg

<svg viewBox="0 0 32 32" xmlns="http://www.w3.org/2000/svg"><path d="m4 4v24h2v-24zm4 0v10h20v-10zm1 1h18v8h-18zm-1 13v10h10v-10zm1 1h8v8h-8z" fill="#4d4d4d"/></svg>

<svg xmlns="http://www.w3.org/2000/svg" viewBox="0 0 32 32">
 <path 
     style="fill:#4d4d4d" 
     d="M 4 4 L 4 28 L 6 28 L 6 4 L 4 4 z M 8 4 L 8 14 L 28 14 L 28 4 L 8 4 z M 9 5 L 27 5 L 27 13 L 9 13 L 9 5 z M 8 18 L 8 28 L 18 28 L 18 18 L 8 18 z M 9 19 L 17 19 L 17 27 L 9 27 L 9 19 z "
     />
</svg>
